X: 1769
T: Ollie Watt's Schottische
B: australian traditional tunes wiki
M:4/4
L:1/8
R: Schottische
Q: 1/4=100
K:G
V:1 
|:"G"d2d>cB2B>A|G>A B>GE2D2|"D7"c2c>BA2A>G|F>G A>FE2D2|!
"G"d2d>cB2B>A|G>A B>G E>G B>d|"D7"c2c>BA2A>G|F>D E>F "G"G2G2|!
D2 D>EG2 G>E|D>E G>AB4|"D7"c2c>BA2A>G|F>G A>FE2D2|!
"G"D2D>EG2G>E|D>E G>A  B>c d2|"D7"c2c>BA2A>G|1F>D E>F"G"G2g2:|2F>D E>F"G"G2||
% abcbook-tune_id 6342d53ad170b8ab00a3c33b


% abcbook-boost 0
% abcbook-tablature 
% abcbook-transpose 
% abcbook-lastupdated 1665324382725
% abcbook-soundfonts 
% abcbook-repeats 1
% NFF Book 2013

